images/cart-icon.svg

<svg viewBox="-1092.078 4119.876 14.807 19.895" xmlns="http://www.w3.org/2000/svg"><g fill="none" stroke="#b4965a" stroke-miterlimit="10" stroke-width="1.5"><path d="m15.222 42.807h-10.137a1.579 1.579 0 0 1 -1.585-1.585v-11.722h13.307v11.722a1.579 1.579 0 0 1 -1.585 1.585z" transform="translate(-1094.828 4096.214)"/><path d="m18.5 12.306v-4.696a3.857 3.857 0 0 1 3.542-4.11h.352a3.857 3.857 0 0 1 3.542 4.11v4.7" transform="translate(-1106.893 4117.126)"/></g></svg>

<svg xmlns="http://www.w3.org/2000/svg" viewBox="-1092.078 4119.876 14.807 19.895">
  <defs>
    <style>
      .cls-1 {
        fill: none;
        stroke: #b4965a;
        stroke-miterlimit: 10;
        stroke-width: 1.5px;
      }
    </style>
  </defs>
  <g id="Group_593" data-name="Group 593" transform="translate(-2344 4021)">
    <path id="Path_316" data-name="Path 316" class="cls-1" d="M15.222,42.807H5.085A1.579,1.579,0,0,1,3.5,41.222V29.5H16.807V41.222A1.579,1.579,0,0,1,15.222,42.807Z" transform="translate(1249.172 75.214)"/>
    <path id="Path_317" data-name="Path 317" class="cls-1" d="M18.5,12.306V7.61A3.857,3.857,0,0,1,22.042,3.5h.352a3.857,3.857,0,0,1,3.542,4.11v4.7" transform="translate(1237.107 96.126)"/>
  </g>
</svg>
